icons-rebrand/svg/application-light.svg

<svg width="32" height="32" viewBox="0 0 32 32" fill="none" xmlns="http://www.w3.org/2000/svg">
<path d="M29.4971 10C29.4957 8.80693 29.0212 7.66311 28.1776 6.81948C27.334 5.97585 26.1901 5.50132 24.9971 5.5H6.99707C5.804 5.50132 4.66018 5.97585 3.81655 6.81948C2.97292 7.66311 2.49839 8.80693 2.49707 10V22C2.49839 23.1931 2.97292 24.3369 3.81655 25.1805C4.66018 26.0241 5.804 26.4987 6.99707 26.5H9.00007C9.13268 26.5 9.25986 26.4473 9.35362 26.3536C9.44739 26.2598 9.50007 26.1326 9.50007 26C9.50007 25.8674 9.44739 25.7402 9.35362 25.6464C9.25986 25.5527 9.13268 25.5 9.00007 25.5H6.99707C6.06914 25.4989 5.17951 25.1299 4.52337 24.4737C3.86722 23.8176 3.49813 22.9279 3.49707 22V11.5H28.4971V22C28.4957 22.9279 28.1266 23.8173 27.4705 24.4734C26.8144 25.1295 25.9249 25.4987 24.9971 25.5H23.0001C22.8675 25.5 22.7403 25.5527 22.6465 25.6464C22.5527 25.7402 22.5001 25.8674 22.5001 26C22.5001 26.1326 22.5527 26.2598 22.6465 26.3536C22.7403 26.4473 22.8675 26.5 23.0001 26.5H24.9971C26.1901 26.4987 27.334 26.0241 28.1776 25.1805C29.0212 24.3369 29.4957 23.1931 29.4971 22V10ZM28.4971 10.5H3.49707V10C3.49813 9.07207 3.86722 8.18244 4.52337 7.5263C5.17951 6.87015 6.06914 6.50106 6.99707 6.5H24.9971C25.925 6.50106 26.8146 6.87015 27.4708 7.5263C28.1269 8.18244 28.496 9.07207 28.4971 10V10.5Z" fill="#0F0F0F"/>
<path d="M12.6099 16.6C12.5314 16.5418 12.4376 16.5078 12.34 16.5023C12.2425 16.4967 12.1455 16.5198 12.0609 16.5687C11.9763 16.6176 11.9078 16.6901 11.8639 16.7774C11.8201 16.8647 11.8026 16.9629 11.8139 17.06L13.0639 27.538C13.0738 27.62 13.1039 27.6983 13.1515 27.7658C13.1991 27.8333 13.2627 27.888 13.3366 27.925C13.4105 27.9619 13.4924 27.98 13.575 27.9775C13.6576 27.9751 13.7383 27.9522 13.8099 27.911L16.9769 26.083L18.8059 29.25C18.8726 29.3639 18.9818 29.4467 19.1094 29.4805C19.237 29.5142 19.3729 29.4961 19.4872 29.4301C19.6015 29.3641 19.6851 29.2555 19.7197 29.1281C19.7543 29.0007 19.7371 28.8647 19.6719 28.75L17.8429 25.583L21.0099 23.754C21.0817 23.7128 21.1421 23.6544 21.1857 23.584C21.2294 23.5137 21.2548 23.4336 21.2598 23.351C21.2647 23.2683 21.2491 23.1858 21.2142 23.1107C21.1793 23.0356 21.1262 22.9704 21.0599 22.921L12.6099 16.6ZM13.9669 26.666L12.9449 18.099L19.8539 23.269L13.9669 26.666Z" fill="#0F0F0F"/>
</svg>

<svg width="32" height="32" viewBox="0 0 32 32" fill="none" xmlns="http://www.w3.org/2000/svg"><path d="M29.497 10a4.505 4.505 0 0 0-4.5-4.5h-18a4.505 4.505 0 0 0-4.5 4.5v12a4.505 4.505 0 0 0 4.5 4.5H9a.5.5 0 1 0 0-1H6.997a3.504 3.504 0 0 1-3.5-3.5V11.5h25V22a3.505 3.505 0 0 1-3.5 3.5H23a.5.5 0 0 0 0 1h1.997a4.505 4.505 0 0 0 4.5-4.5V10zm-1 .5h-25V10a3.504 3.504 0 0 1 3.5-3.5h18a3.504 3.504 0 0 1 3.5 3.5v.5z" fill="#0F0F0F"/><path d="M12.61 16.6a.501.501 0 0 0-.796.46l1.25 10.478a.5.5 0 0 0 .746.373l3.167-1.828 1.829 3.167a.5.5 0 0 0 .866-.5l-1.829-3.167 3.167-1.829a.499.499 0 0 0 .05-.833L12.61 16.6zm1.357 10.066l-1.022-8.567 6.909 5.17-5.887 3.397z" fill="#0F0F0F"/></svg>
